X:255
T: HINTER UNSERN PIITE
N: E0840
O: Europa, Mitteleuropa, Deutschland, Brandenburg, Alt - Litzgoericke
R: Hochzeits -, Ehestands - Lied
M: 3/8
L: 1/16
K: G
D2 | GGG2G2 | GED2D2 | G4
D2 | GGG2G2 | GED2D2 | G4
d2 | BBB2d2 | cBA2
B2 | GGG2B2 | AFD2D2 | G4

@@@ Tune index: 4568
